svgs/light/reel.svg

<svg xmlns="http://www.w3.org/2000/svg" viewBox="0 0 448 512"><!--! Font Awesome Pro 6.6.0 by @fontawesome - https://fontawesome.com License - https://fontawesome.com/license (Commercial License) Copyright 2024 Fonticons, Inc. --><path d="M0 16C0 7.2 7.2 0 16 0L80 0 368 0l64 0c8.8 0 16 7.2 16 16s-7.2 16-16 16l-48 0 0 64c0 8.8-7.2 16-16 16L80 112c-8.8 0-16-7.2-16-16l0-64L16 32C7.2 32 0 24.8 0 16zM96 32l0 48 256 0 0-48L96 32zM64 160c0-8.8 7.2-16 16-16l288 0c8.8 0 16 7.2 16 16s-7.2 16-16 16L80 176c-8.8 0-16-7.2-16-16zm0 64c0-8.8 7.2-16 16-16l352 0c8.8 0 16 7.2 16 16s-7.2 16-16 16L80 240c-8.8 0-16-7.2-16-16zm0 64c0-8.8 7.2-16 16-16l288 0c8.8 0 16 7.2 16 16s-7.2 16-16 16L80 304c-8.8 0-16-7.2-16-16zm0 64c0-8.8 7.2-16 16-16l288 0c8.8 0 16 7.2 16 16s-7.2 16-16 16L80 368c-8.8 0-16-7.2-16-16zM16 512c-8.8 0-16-7.2-16-16s7.2-16 16-16l48 0 0-64c0-8.8 7.2-16 16-16l288 0c8.8 0 16 7.2 16 16l0 64 48 0c8.8 0 16 7.2 16 16s-7.2 16-16 16l-64 0L80 512l-64 0zm80-80l0 48 256 0 0-48L96 432z"/></svg>

<svg xmlns="http://www.w3.org/2000/svg" viewBox="0 0 448 512"><!--! Font Awesome Pro 6.4.0 by @fontawesome - https://fontawesome.com License - https://fontawesome.com/license (Commercial License) Copyright 2023 Fonticons, Inc. --><path d="M0 16C0 7.2 7.2 0 16 0H80 368h64c8.8 0 16 7.2 16 16s-7.2 16-16 16H384V96c0 8.8-7.2 16-16 16H80c-8.8 0-16-7.2-16-16V32H16C7.2 32 0 24.8 0 16zM96 32V80H352V32H96zM64 160c0-8.8 7.2-16 16-16H368c8.8 0 16 7.2 16 16s-7.2 16-16 16H80c-8.8 0-16-7.2-16-16zm0 64c0-8.8 7.2-16 16-16H432c8.8 0 16 7.2 16 16s-7.2 16-16 16H80c-8.8 0-16-7.2-16-16zm0 64c0-8.8 7.2-16 16-16H368c8.8 0 16 7.2 16 16s-7.2 16-16 16H80c-8.8 0-16-7.2-16-16zm0 64c0-8.8 7.2-16 16-16H368c8.8 0 16 7.2 16 16s-7.2 16-16 16H80c-8.8 0-16-7.2-16-16zM16 512c-8.8 0-16-7.2-16-16s7.2-16 16-16H64V416c0-8.8 7.2-16 16-16H368c8.8 0 16 7.2 16 16v64h48c8.8 0 16 7.2 16 16s-7.2 16-16 16H368 80 16zm80-80v48H352V432H96z"/></svg>
